X:1
T:Mug of Brown Ale
M:6/8
L:1/8
R:Jig
K:Ador
[| "Am"eAA fAA | gfg age | "G"dBA GFG | B2A B^cd | "Am"eAA fAA | gfg age | "G"dBB gdB | BAG "Am"A3 |]
[| "Am"efg aba | aba age | "G"def ~g3 | gba ged  | "Am"efg aba | aba age | "G"dBB gdB | BAG "Am"A3 |]
